X:131
T:Jimmy's return
R:Reel
O:Ireland
S:O'Neill's 1444
B:O'Neill's 1444
Z:Transcription, slight arr., chords:Mike Long
M:C|
L:1/8
K:D
e|\
"Bm"f2Bc dBfB|"A"cAec aecA|"Bm"f2Bc dBfB|"A"cAec "Bm"dBBe|\
"Bm"f2Bc dBfB|"A"cAec aecA|
"Bm"BcdB "A"cdea|"F#m"fdec "Bm"dBB|]\
A|\
"Bm"Bbfd BcdB|"A"cAec aecA|"Bm"Bbfd BcdB|
"A"cAec "Bm"dBBA|\
"Bm"Bbfd BcdB|"A"cAcA aecA|"Bm"Ba^ga "A"f=gef|"F#m"dfec "Bm"dBB|]
